src/assets/img/Login/icons/green_apple.svg

<svg width="30" height="30" viewBox="0 0 30 30" fill="none" xmlns="http://www.w3.org/2000/svg">
<g id="Icon" clip-path="url(#clip0_67_204)">
<path id="Vector" d="M30 15C30 6.71572 23.2843 0 15 0C6.71572 0 0 6.71572 0 15C0 22.4868 5.48525 28.6925 12.6562 29.8178V19.3359H8.84766V15H12.6562V11.6953C12.6562 7.93594 14.8957 5.85938 18.322 5.85938C19.9626 5.85938 21.6797 6.15234 21.6797 6.15234V9.84375H19.7883C17.925 9.84375 17.3438 11.0001 17.3438 12.1875V15H21.5039L20.8389 19.3359H17.3438V29.8178C24.5147 28.6925 30 22.4868 30 15Z" fill="#CAFF33"/>
<path id="Vector_2" d="M20.8389 19.3359L21.5039 15H17.3438V12.1875C17.3438 11.0013 17.925 9.84375 19.7883 9.84375H21.6797V6.15234C21.6797 6.15234 19.9632 5.85938 18.322 5.85938C14.8957 5.85938 12.6562 7.93594 12.6562 11.6953V15H8.84766V19.3359H12.6562V29.8178C14.2093 30.0607 15.7907 30.0607 17.3438 29.8178V19.3359H20.8389Z" fill="#1C1C1C"/>
</g>
<defs>
<clipPath id="clip0_67_204">
<rect width="30" height="30" fill="white"/>
</clipPath>
</defs>
</svg>

<svg xmlns="http://www.w3.org/2000/svg" width="30" height="30" fill="none"><g clip-path="url(#a)"><path fill="#CAFF33" d="M30 15c0-8.284-6.716-15-15-15C6.716 0 0 6.716 0 15c0 7.487 5.485 13.692 12.656 14.818V19.336H8.848V15h3.808v-3.305c0-3.76 2.24-5.836 5.666-5.836 1.64 0 3.358.293 3.358.293v3.692h-1.892c-1.863 0-2.444 1.156-2.444 2.344V15h4.16l-.665 4.336h-3.495v10.482C24.514 28.692 30 22.487 30 15Z"/><path fill="#1C1C1C" d="M20.839 19.336 21.504 15h-4.16v-2.813c0-1.186.581-2.343 2.444-2.343h1.892V6.152s-1.717-.293-3.358-.293c-3.426 0-5.666 2.077-5.666 5.836V15H8.848v4.336h3.808v10.482c1.553.243 3.135.243 4.688 0V19.336h3.495Z"/></g><defs><clipPath id="a"><path fill="#fff" d="M0 0h30v30H0z"/></clipPath></defs></svg>
